web/ui/src/components/theme/button/svgs/terminate.svg

<svg height="16" viewBox="0 0 16 16" width="16" xmlns="http://www.w3.org/2000/svg"><g fill="none"><path d="m0 0h16v16h-16z" fill="#000" opacity="0"/><path d="m8 15c-3.85998438 0-7-3.1400156-7-7 0-3.85998437 3.14001562-7 7-7 3.8599844 0 7 3.14001563 7 7 0 3.8599844-3.1400156 7-7 7zm0-13c-3.3085 0-6 2.6915-6 6s2.6915 6 6 6 6-2.6915 6-6-2.6915-6-6-6zm4.9327381 1.64034995c.2343146.23431458.2343146.61421357 0 .84852814l-8.34386001 8.34386001c-.23431457.2343146-.61421356.2343146-.84852814 0-.23431457-.2343146-.23431457-.6142136 0-.8485281l8.34386005-8.34386005c.2343145-.23431457.6142135-.23431457.8485281 0z" fill="#595959"/></g></svg>

<?xml version="1.0" encoding="UTF-8"?>
<svg width="16px" height="16px" viewBox="0 0 16 16" version="1.1" xmlns="http://www.w3.org/2000/svg" xmlns:xlink="http://www.w3.org/1999/xlink">
    <title>terminate</title>
    <g id="页面-1" stroke="none" stroke-width="1" fill="none" fill-rule="evenodd">
        <g id="系统设计规范" transform="translate(-982.000000, -5253.000000)" fill-rule="nonzero">
            <g id="terminate" transform="translate(982.000000, 5253.000000)">
                <rect id="矩形" fill="#000000" opacity="0" x="0" y="0" width="16" height="16"></rect>
                <path d="M8,15 C4.14001562,15 1,11.8599844 1,8 C1,4.14001563 4.14001562,1 8,1 C11.8599844,1 15,4.14001563 15,8 C15,11.8599844 11.8599844,15 8,15 Z M8,2 C4.6915,2 2,4.6915 2,8 C2,11.3085 4.6915,14 8,14 C11.3085,14 14,11.3085 14,8 C14,4.6915 11.3085,2 8,2 Z M12.9327381,3.64034995 C13.1670527,3.87466453 13.1670527,4.25456352 12.9327381,4.48887809 L4.58887809,12.8327381 C4.35456352,13.0670527 3.97466453,13.0670527 3.74034995,12.8327381 C3.50603538,12.5984235 3.50603538,12.2185245 3.74034995,11.98421 L12.08421,3.64034995 C12.3185245,3.40603538 12.6984235,3.40603538 12.9327381,3.64034995 Z" id="形状" fill="#595959"></path>
            </g>
        </g>
    </g>
</svg>
